X: 1
T: IT HAD TO BE YOU
C: Jones
%%%staffsep 30
M: C
L: 1/8
K: G
[| z3 D "D+"EDEF- | "G"F4- "D+"F4 | "G"z3F GFG^G- | "E7"G8 |
w: It had to be you,__  it had to be you,_
z3^G AGAB- | "A7"B6=G A^GAB- | B3=G A^GAB- | B8 |
w: I wan-dered a-round_ and fin-al-ly found_ the some-bo-dy who_
z3A BABd- | "D7"d8 | z3B "B7"ABAG- | "Em"G8 |
w: could make me be true_ could make me be blue_
z3G GFGA- | "A7"A4 GFGA- | A4 BeBA- | "D7"A4- "Eb7-5"A4 |
w: And e-ven be glad,_ just to be sad_ think-ing of you__
"D7"z3D "D+"EDEF- | "G"F4- "D+"F4 | "G"z3F GFG^G- | "E7"G8 |
w: Some oth-ers I've seen__ might ne-ver be mean
z3^G AGAB- | "A7"B3=G A^GAB- | B3=G A^GAB- | B8 |
w: might ne-ver be cross _ or try to be boss_ but they would-n't do,
z2B2 "Em"Bcde- | "Am"e4 EFGA- | "Adim"A4 "D7"ABcd- | "G"d4 "B7"ABAG-  |
w: for no-bo-dy else_ gave me a thrill._ With all your faults,_ I love you still.
"Em"G3F "Gdim"EDEF- | "D7"F4 "Gdim"EDEF- | "D7"F4 BdBG- | "G"G8- | G6 z2 |]
w: _ It had to be you,_ won-der-ful you,_  had to be you.__

